src/images/reviews-img/stars5.svg

<svg width="136" height="24" viewBox="0 0 136 24" fill="none" xmlns="http://www.w3.org/2000/svg">
<path d="M11.0489 2.92705C11.3483 2.00574 12.6517 2.00574 12.9511 2.92705L14.4697 7.60081C14.6035 8.01284 14.9875 8.2918 15.4207 8.2918H20.335C21.3037 8.2918 21.7065 9.53141 20.9228 10.1008L16.947 12.9894C16.5966 13.244 16.4499 13.6954 16.5838 14.1074L18.1024 18.7812C18.4017 19.7025 17.3472 20.4686 16.5635 19.8992L12.5878 17.0106C12.2373 16.756 11.7627 16.756 11.4122 17.0106L7.43648 19.8992C6.65276 20.4686 5.59828 19.7025 5.89763 18.7812L7.41623 14.1074C7.55011 13.6954 7.40345 13.244 7.05296 12.9894L3.07722 10.1008C2.29351 9.53141 2.69628 8.2918 3.66501 8.2918H8.57929C9.01252 8.2918 9.39647 8.01284 9.53035 7.60081L11.0489 2.92705Z" fill="#EDD501"/>
<path d="M123.049 2.92705C123.348 2.00574 124.652 2.00574 124.951 2.92705L126.47 7.60081C126.604 8.01284 126.987 8.2918 127.421 8.2918H132.335C133.304 8.2918 133.706 9.53141 132.923 10.1008L128.947 12.9894C128.597 13.244 128.45 13.6954 128.584 14.1074L130.102 18.7812C130.402 19.7025 129.347 20.4686 128.564 19.8992L124.588 17.0106C124.237 16.756 123.763 16.756 123.412 17.0106L119.436 19.8992C118.653 20.4686 117.598 19.7025 117.898 18.7812L119.416 14.1074C119.55 13.6954 119.403 13.244 119.053 12.9894L115.077 10.1008C114.294 9.53141 114.696 8.2918 115.665 8.2918H120.579C121.013 8.2918 121.396 8.01284 121.53 7.60081L123.049 2.92705Z" fill="#EDD501"/>
<path d="M95.0489 2.92705C95.3483 2.00574 96.6517 2.00574 96.9511 2.92705L98.4697 7.60081C98.6035 8.01284 98.9875 8.2918 99.4207 8.2918H104.335C105.304 8.2918 105.706 9.53141 104.923 10.1008L100.947 12.9894C100.597 13.244 100.45 13.6954 100.584 14.1074L102.102 18.7812C102.402 19.7025 101.347 20.4686 100.564 19.8992L96.5878 17.0106C96.2373 16.756 95.7627 16.756 95.4122 17.0106L91.4365 19.8992C90.6528 20.4686 89.5983 19.7025 89.8976 18.7812L91.4162 14.1074C91.5501 13.6954 91.4034 13.244 91.053 12.9894L87.0772 10.1008C86.2935 9.53141 86.6963 8.2918 87.665 8.2918H92.5793C93.0125 8.2918 93.3965 8.01284 93.5303 7.60081L95.0489 2.92705Z" fill= "#EDD501"/>
<path d="M67.0489 2.92705C67.3483 2.00574 68.6517 2.00574 68.9511 2.92705L70.4697 7.60081C70.6035 8.01284 70.9875 8.2918 71.4207 8.2918H76.335C77.3037 8.2918 77.7065 9.53141 76.9228 10.1008L72.947 12.9894C72.5966 13.244 72.4499 13.6954 72.5838 14.1074L74.1024 18.7812C74.4017 19.7025 73.3472 20.4686 72.5635 19.8992L68.5878 17.0106C68.2373 16.756 67.7627 16.756 67.4122 17.0106L63.4365 19.8992C62.6528 20.4686 61.5983 19.7025 61.8976 18.7812L63.4162 14.1074C63.5501 13.6954 63.4034 13.244 63.053 12.9894L59.0772 10.1008C58.2935 9.53141 58.6963 8.2918 59.665 8.2918H64.5793C65.0125 8.2918 65.3965 8.01284 65.5303 7.60081L67.0489 2.92705Z" fill="#EDD501"/>
<path d="M39.0489 2.92705C39.3483 2.00574 40.6517 2.00574 40.9511 2.92705L42.4697 7.60081C42.6035 8.01284 42.9875 8.2918 43.4207 8.2918H48.335C49.3037 8.2918 49.7065 9.53141 48.9228 10.1008L44.947 12.9894C44.5966 13.244 44.4499 13.6954 44.5838 14.1074L46.1024 18.7812C46.4017 19.7025 45.3472 20.4686 44.5635 19.8992L40.5878 17.0106C40.2373 16.756 39.7627 16.756 39.4122 17.0106L35.4365 19.8992C34.6528 20.4686 33.5983 19.7025 33.8976 18.7812L35.4162 14.1074C35.5501 13.6954 35.4034 13.244 35.053 12.9894L31.0772 10.1008C30.2935 9.53141 30.6963 8.2918 31.665 8.2918H36.5793C37.0125 8.2918 37.3965 8.01284 37.5303 7.60081L39.0489 2.92705Z" fill="#EDD501"/>
</svg>

<svg width="136" height="24" fill="none" xmlns="http://www.w3.org/2000/svg">
  <path d="M11.049 2.927c.3-.921 1.603-.921 1.902 0l1.519 4.674a1 1 0 0 0 .95.69h4.915c.969 0 1.371 1.24.588 1.81l-3.976 2.888a1 1 0 0 0-.363 1.118l1.518 4.674c.3.922-.755 1.688-1.538 1.118l-3.976-2.888a1 1 0 0 0-1.176 0l-3.976 2.888c-.783.57-1.838-.197-1.538-1.118l1.518-4.674a1 1 0 0 0-.363-1.118l-3.976-2.888c-.783-.57-.38-1.81.588-1.81h4.914a1 1 0 0 0 .951-.69l1.519-4.674ZM123.049 2.927c.299-.921 1.603-.921 1.902 0l1.519 4.674a1 1 0 0 0 .951.69h4.914c.969 0 1.371 1.24.588 1.81l-3.976 2.888a1 1 0 0 0-.363 1.118l1.518 4.674c.3.922-.755 1.688-1.538 1.118l-3.976-2.888a1 1 0 0 0-1.176 0l-3.976 2.888c-.783.57-1.838-.197-1.538-1.118l1.518-4.674a1 1 0 0 0-.363-1.118l-3.976-2.888c-.783-.57-.381-1.81.588-1.81h4.914a1 1 0 0 0 .951-.69l1.519-4.674ZM95.049 2.927c.3-.921 1.603-.921 1.902 0l1.519 4.674a1 1 0 0 0 .95.69h4.915c.969 0 1.371 1.24.588 1.81l-3.976 2.888a1 1 0 0 0-.363 1.118l1.518 4.674c.3.922-.755 1.688-1.538 1.118l-3.976-2.888a1 1 0 0 0-1.176 0l-3.976 2.888c-.783.57-1.838-.197-1.538-1.118l1.518-4.674a1 1 0 0 0-.363-1.118l-3.976-2.888c-.784-.57-.38-1.81.588-1.81h4.914a1 1 0 0 0 .951-.69l1.519-4.674ZM67.049 2.927c.3-.921 1.603-.921 1.902 0l1.519 4.674a1 1 0 0 0 .95.69h4.915c.969 0 1.372 1.24.588 1.81l-3.976 2.888a1 1 0 0 0-.363 1.118l1.518 4.674c.3.922-.755 1.688-1.538 1.118l-3.976-2.888a1 1 0 0 0-1.176 0l-3.976 2.888c-.783.57-1.838-.197-1.538-1.118l1.518-4.674a1 1 0 0 0-.363-1.118l-3.976-2.888c-.783-.57-.38-1.81.588-1.81h4.914a1 1 0 0 0 .951-.69l1.519-4.674ZM39.049 2.927c.3-.921 1.603-.921 1.902 0l1.519 4.674a1 1 0 0 0 .95.69h4.915c.969 0 1.371 1.24.588 1.81l-3.976 2.888a1 1 0 0 0-.363 1.118l1.518 4.674c.3.922-.755 1.688-1.538 1.118l-3.976-2.888a1 1 0 0 0-1.176 0l-3.975 2.888c-.784.57-1.839-.197-1.54-1.118l1.52-4.674a1 1 0 0 0-.364-1.118l-3.976-2.888c-.784-.57-.38-1.81.588-1.81h4.914a1 1 0 0 0 .951-.69l1.519-4.674Z" fill="#EDD501"/>
</svg>
